Catalina-dark/actions/22/edit-image-face-show.svg

<svg xmlns="http://www.w3.org/2000/svg" viewBox="0 0 22 22">
  <defs id="defs3051">
    <style type="text/css" id="current-color-scheme">
      .ColorScheme-Text {
        color:#f2f2f2
      }
      </style>
  </defs>
 <path 
     style="fill:currentColor;fill-opacity:1;stroke:none"      
	 class="ColorScheme-Text"
        d="M 4 3 C 3.4460052 3 3 3.4459996 3 4 L 3 18 C 3 18.554 3.4460052 19 4 19 L 18 19 C 18.554006 19 19 18.554 19 18 L 19 4 C 19 3.4459996 18.554006 3 18 3 L 4 3 z M 10.976562 5.1816406 C 12.434685 5.1816406 13.689453 6.1718555 13.689453 8.0585938 C 13.689453 9.2856397 13.115312 10.530146 12.363281 11.304688 L 12.367188 11.304688 C 12.078687 12.181674 12.540237 12.390174 12.613281 12.414062 C 14.361151 13.014554 16.572749 14.512537 16.523438 16.818359 L 5.4746094 16.818359 C 5.4303634 14.404603 8.2278313 12.746505 9.2558594 12.414062 C 9.3661143 12.374095 9.8925883 12.088076 9.5976562 11.314453 C 8.8410315 10.54175 8.2695312 9.2906931 8.2695312 8.0585938 C 8.2695313 6.1713961 9.5175217 5.1816406 10.976562 5.1816406 z "
     />
</svg>

<svg viewBox="0 0 22 22" xmlns="http://www.w3.org/2000/svg">
<defs>
<style id="current-color-scheme" type="text/css">.ColorScheme-Text {
        color:#f2f2f2
      }</style>
</defs>
<path class="ColorScheme-Text" d="m4 3c-0.55399 0-1 0.446-1 1v14c0 0.554 0.44601 1 1 1h14c0.55401 0 1-0.446 1-1v-14c0-0.554-0.44599-1-1-1h-14zm6.9766 2.1816c1.4581 0 2.7129 0.99021 2.7129 2.877 0 1.227-0.57414 2.4716-1.3262 3.2461h0.003907c-0.2885 0.87699 0.17305 1.0855 0.24609 1.1094 1.7479 0.60049 3.9595 2.0985 3.9102 4.4043h-11.049c-0.044246-2.4138 2.7532-4.0719 3.7812-4.4043 0.11025-0.039967 0.63673-0.32599 0.3418-1.0996-0.75662-0.7727-1.3281-2.0238-1.3281-3.2559 1e-7 -1.8872 1.248-2.877 2.707-2.877z" fill="currentColor"/>
</svg>
